X:73
T:50th Psalm. WHG.072
C:by Thos. Clark
R:hymn
S:W.H.Giles MS,Bampton,Oxfordshire,1839p73
O:England
H:donated by Mrs W.R.Kettlewell to VWML,Apr 1927.
A:Bampton, Oxfordshire
N:The d2 in bar4 is d in the MS. The A just before “Pia”
N:is A2 in the MS. The a2 under “Sym” is a in the MS.
Z:PJHeadford – VMP 2009
M:C|
L:1/8
Q:2/4=70
K:D
A2|d2d2 d2zf|g2e2 f2zf|e2d2 a3f|e2e2d2zf|\
fe ed dc cB|A2^G2 A2zA”^Pia”|A2A2 A2zd|d2=c2 B2zB|
e2g2 f2e2|d2c2 B2zA|”^Dro”AF GB Ad fa|g2f2 Hezd|\
“^For”ce A2 d2g2|f2e2 d2||”^Sym”a2|afdb afd/e/f/g/|\
f2e2 d2|]

